flaticon/casino-gambling/dice-3.svg

<svg xmlns="http://www.w3.org/2000/svg" width="32" height="32" viewBox="0 0 24 24">
    <path d="M 21.929688 0 L 2.070312 0 C 0.910156 0 0 0.910156 0 2.070312 L 0 21.929688 C 0 23.089844 0.910156 24 2.070312 24 L 21.929688 24 C 23.089844 24 24 23.089844 24 21.929688 L 24 2.070312 C 24 0.910156 23.089844 0 21.929688 0 Z M 23.171875 21.929688 C 23.171875 22.632812 22.632812 23.171875 21.929688 23.171875 L 2.070312 23.171875 C 1.367188 23.171875 0.828125 22.632812 0.828125 21.929688 L 0.828125 2.070312 C 0.828125 1.367188 1.367188 0.828125 2.070312 0.828125 L 21.929688 0.828125 C 22.632812 0.828125 23.171875 1.367188 23.171875 2.070312 Z M 23.171875 21.929688"/>
    <path d="M17.792969 21.101562L3.101562 21.101562C2.980469 21.101562 2.898438 21.019531 2.898438 20.898438L2.898438 8.277344C2.898438 8.027344 2.730469 7.863281 2.484375 7.863281 2.234375 7.863281 2.070312 8.027344 2.070312 8.277344L2.070312 20.898438C2.070312 21.476562 2.523438 21.929688 3.101562 21.929688L17.792969 21.929688C18.042969 21.929688 18.207031 21.765625 18.207031 21.515625 18.207031 21.269531 18.042969 21.101562 17.792969 21.101562zM20.898438 2.070312L3.101562 2.070312C2.523438 2.070312 2.070312 2.523438 2.070312 3.101562L2.070312 4.964844C2.070312 5.214844 2.234375 5.378906 2.484375 5.378906 2.730469 5.378906 2.898438 5.214844 2.898438 4.964844L2.898438 3.101562C2.898438 2.980469 2.980469 2.898438 3.101562 2.898438L20.898438 2.898438C21.019531 2.898438 21.101562 2.980469 21.101562 3.101562L21.101562 20.898438C21.101562 21.019531 21.019531 21.101562 20.898438 21.101562L19.449219 21.101562C19.199219 21.101562 19.035156 21.269531 19.035156 21.515625 19.035156 21.765625 19.199219 21.929688 19.449219 21.929688L20.898438 21.929688C21.476562 21.929688 21.929688 21.476562 21.929688 20.898438L21.929688 3.101562C21.929688 2.523438 21.476562 2.070312 20.898438 2.070312zM2.484375 7.035156C2.730469 7.035156 2.898438 6.867188 2.898438 6.621094 2.898438 6.371094 2.730469 6.207031 2.484375 6.207031 2.234375 6.207031 2.070312 6.371094 2.070312 6.621094 2.070312 6.867188 2.234375 7.035156 2.484375 7.035156zM2.484375 7.035156"/>
    <path d="M7.035156 9.101562C8.191406 9.101562 9.101562 8.191406 9.101562 7.035156 9.101562 5.875 8.191406 4.964844 7.035156 4.964844 5.875 4.964844 4.964844 5.875 4.964844 7.035156 4.964844 8.191406 5.875 9.101562 7.035156 9.101562zM7.035156 5.792969C7.738281 5.792969 8.277344 6.332031 8.277344 7.035156 8.277344 7.738281 7.738281 8.277344 7.035156 8.277344 6.332031 8.277344 5.792969 7.738281 5.792969 7.035156 5.792969 6.332031 6.332031 5.792969 7.035156 5.792969zM16.964844 9.101562C18.125 9.101562 19.035156 8.191406 19.035156 7.035156 19.035156 5.875 18.125 4.964844 16.964844 4.964844 15.808594 4.964844 14.898438 5.875 14.898438 7.035156 14.898438 8.191406 15.808594 9.101562 16.964844 9.101562zM16.964844 5.792969C17.667969 5.792969 18.207031 6.332031 18.207031 7.035156 18.207031 7.738281 17.667969 8.277344 16.964844 8.277344 16.261719 8.277344 15.722656 7.738281 15.722656 7.035156 15.722656 6.332031 16.261719 5.792969 16.964844 5.792969zM16.964844 14.898438C15.808594 14.898438 14.898438 15.808594 14.898438 16.964844 14.898438 18.125 15.808594 19.035156 16.964844 19.035156 18.125 19.035156 19.035156 18.125 19.035156 16.964844 19.035156 15.808594 18.125 14.898438 16.964844 14.898438zM16.964844 18.207031C16.261719 18.207031 15.722656 17.667969 15.722656 16.964844 15.722656 16.261719 16.261719 15.722656 16.964844 15.722656 17.667969 15.722656 18.207031 16.261719 18.207031 16.964844 18.207031 17.667969 17.667969 18.207031 16.964844 18.207031zM7.035156 19.035156C8.191406 19.035156 9.101562 18.125 9.101562 16.964844 9.101562 15.808594 8.191406 14.898438 7.035156 14.898438 5.875 14.898438 4.964844 15.808594 4.964844 16.964844 4.964844 18.125 5.875 19.035156 7.035156 19.035156zM7.035156 15.722656C7.738281 15.722656 8.277344 16.261719 8.277344 16.964844 8.277344 17.667969 7.738281 18.207031 7.035156 18.207031 6.332031 18.207031 5.792969 17.667969 5.792969 16.964844 5.792969 16.261719 6.332031 15.722656 7.035156 15.722656zM7.035156 15.722656"/>
</svg>

<svg xmlns="http://www.w3.org/2000/svg" width="32" height="32" viewBox="0 0 24 24">
    <path d="M21.93 0H2.07C.91 0 0 .91 0 2.07v19.86C0 23.09.91 24 2.07 24h19.86c1.16 0 2.07-.91 2.07-2.07V2.07C24 .91 23.09 0 21.93 0zm1.242 21.93c0 .703-.54 1.242-1.242 1.242H2.07c-.703 0-1.242-.54-1.242-1.242V2.07c0-.703.54-1.242 1.242-1.242h19.86c.703 0 1.242.54 1.242 1.242zm0 0"/>
    <path d="M17.793 21.102H3.102a.193.193 0 0 1-.204-.204V8.278c0-.25-.168-.415-.414-.415-.25 0-.414.164-.414.414v12.621a1.02 1.02 0 0 0 1.032 1.032h14.691c.25 0 .414-.164.414-.414 0-.246-.164-.414-.414-.414zm0 0M20.898 2.07H3.102A1.02 1.02 0 0 0 2.07 3.102v1.863c0 .25.164.414.414.414.246 0 .414-.164.414-.414V3.102c0-.122.082-.204.204-.204h17.796c.122 0 .204.082.204.204v17.796a.193.193 0 0 1-.204.204H19.45c-.25 0-.414.168-.414.414 0 .25.164.414.414.414h1.45a1.02 1.02 0 0 0 1.03-1.032V3.102A1.02 1.02 0 0 0 20.9 2.07zm0 0M2.484 7.035a.394.394 0 0 0 .414-.414c0-.25-.168-.414-.414-.414-.25 0-.414.164-.414.414 0 .246.164.414.414.414zm0 0"/>
    <path d="M7.035 9.102c1.156 0 2.067-.91 2.067-2.067 0-1.16-.91-2.07-2.067-2.07-1.16 0-2.07.91-2.07 2.07 0 1.156.91 2.067 2.07 2.067zm0-3.309c.703 0 1.242.539 1.242 1.242s-.539 1.242-1.242 1.242-1.242-.539-1.242-1.242.539-1.242 1.242-1.242zm0 0M16.965 9.102c1.16 0 2.07-.91 2.07-2.067 0-1.16-.91-2.07-2.07-2.07-1.156 0-2.067.91-2.067 2.07 0 1.156.91 2.067 2.067 2.067zm0-3.309c.703 0 1.242.539 1.242 1.242s-.539 1.242-1.242 1.242-1.242-.539-1.242-1.242.539-1.242 1.242-1.242zm0 0M16.965 14.898c-1.156 0-2.067.91-2.067 2.067 0 1.16.91 2.07 2.067 2.07 1.16 0 2.07-.91 2.07-2.07 0-1.156-.91-2.067-2.07-2.067zm0 3.309c-.703 0-1.242-.539-1.242-1.242s.539-1.242 1.242-1.242 1.242.539 1.242 1.242-.539 1.242-1.242 1.242zm0 0M7.035 19.035c1.156 0 2.067-.91 2.067-2.07 0-1.156-.91-2.067-2.067-2.067-1.16 0-2.07.91-2.07 2.067 0 1.16.91 2.07 2.07 2.07zm0-3.312c.703 0 1.242.539 1.242 1.242s-.539 1.242-1.242 1.242-1.242-.539-1.242-1.242.539-1.242 1.242-1.242zm0 0"/>
</svg>
